X:11172
T:Morgane - Valse/Walzer/Waltz
C:Maxou Heintzen
Z:abc transcription Simon Wascher
N:please mail errors to simon.wascher@chello.at
M:3/4
L:1/4
K:D
ABd|cBd|cBA/B/|F3|
BAB|EFG|GFE|F2D|
ABd|cBd|cBA/B/|F3|
BAB|EFG|GFE|D3:|
|:F/A/F/E/D/E/|F/A/F/E/D/E/|F/A/F/E/D/E/|G3|
G/B/G/F/E/F/|G/B/G/F/E/F/|G/B/G/F/E/F/|A3|
F/A/F/E/D/E/|F/A/F/E/D/E/|F/A/F/E/D/E/|G3|
E/F/G/A/B/c/|BAG|FEF|D3:|
